public/images/home/connect.svg

<svg width="47" height="50" viewBox="0 0 47 50" fill="none" xmlns="http://www.w3.org/2000/svg">
<path fill-rule="evenodd" clip-rule="evenodd" d="M7.70422 31.8588L7.58709 31.6253L7.4729 31.3884L7.36181 31.1482L7.25396 30.9047L7.14952 30.6581L7.04863 30.4083L6.95145 30.1554L6.85814 29.8994L6.76884 29.6405L6.68372 29.3787L6.60292 29.1142L6.5266 28.8469L6.45488 28.577L6.38793 28.3046L6.32587 28.0298L6.26884 27.7527L6.21697 27.4735L6.17038 27.1922L6.12917 26.9089L6.09348 26.6239L6.06338 26.3373L6.03898 26.0491L6.02037 25.7596L6.00763 25.4688L6.00082 25.1769L6 24.8841L6.00524 24.5905L6.01658 24.2962L6.03405 24.0014L6.05769 23.7063L6.08751 23.4109L6.12354 23.1155L6.16578 22.8202L6.21424 22.525L6.2689 22.2302L6.32976 21.9359L6.39681 21.6422L6.47002 21.3493L6.54938 21.0572L6.63486 20.7662L6.72643 20.4764L6.82403 20.1878L6.92763 19.9006L7.03716 19.615L7.15253 19.3309L7.27369 19.0486L7.40054 18.7681L7.53299 18.4894L7.67095 18.2126L7.81431 17.9379L7.96297 17.6652L8.11683 17.3946L8.27576 17.1262L8.43968 16.8599L8.60846 16.5958L8.78201 16.3339L8.96021 16.0743L9.14296 15.8169L9.33016 15.5617L9.52172 15.3088L9.71755 15.0582L9.91755 14.8097L10.1217 14.5636L10.3298 14.3197L10.5419 14.078L10.7579 13.8386L10.9777 13.6014L11.2013 13.3665L11.4287 13.1339L11.6598 12.9036L11.8945 12.6757L12.133 12.4501L12.375 12.227L12.6207 12.0063L12.8701 11.7882L13.123 11.5728L13.3796 11.36L13.6398 11.1501L13.9037 10.9431L14.1712 10.7392L14.4423 10.5385L14.7171 10.3412L14.9955 10.1474L15.2776 9.95726L15.5633 9.77106L15.8527 9.58896L16.1457 9.41115L16.4423 9.23786L16.7425 9.06931L17.0462 8.90572L17.3534 8.74734L17.6641 8.59439L17.9781 8.44712L18.2954 8.30576L18.6159 8.17055L18.9395 8.04173L19.2661 7.91951L19.5955 7.80413L19.9277 7.69579L20.2625 7.5947L20.5997 7.50106L20.9391 7.41502L21.2806 7.33677L21.6241 7.26645L21.9692 7.20417L22.3158 7.15005L22.6638 7.10418L23.0128 7.06663L23.3627 7.03743L23.7133 7.01659L24.0643 7.00413L24.4155 7L24.7668 7.00415L25.1179 7.01648L25.4686 7.03692L25.8187 7.06533L26.1681 7.10159L26.5165 7.14554L26.8638 7.19704L27.2098 7.25589L27.5543 7.32193L27.8973 7.39494L28.2387 7.47474L28.5781 7.56111L28.9157 7.65382L29.2512 7.75266L29.5847 7.85739L29.9159 7.96778L30.245 8.0836L30.5717 8.20462L30.8961 8.33061L31.2182 8.46134L31.5379 8.59658L31.8553 8.73612L32.1703 8.87975L32.483 9.02727L32.7933 9.17848L33.1013 9.33319L33.4071 9.49126L33.7106 9.6525L34.012 9.81678L34.3112 9.98396L34.6082 10.1539L34.9032 10.3266L35.1962 10.5018L35.4872 10.6796L35.7762 10.8599L36.0633 11.0426L36.3485 11.2277L36.6318 11.4151L36.9133 11.605L37.1929 11.7972L37.4706 11.9917L37.7465 12.1887L38.0205 12.3881L38.2927 12.5899L38.5629 12.7943L38.8312 13.0012L39.0974 13.2108L39.3616 13.4231L39.6236 13.6381L39.8834 13.8561L40.1408 14.0769L40.3957 14.3008L40.6481 14.5279L40.8977 14.7581L41.1445 14.9916L41.3883 15.2285L41.6288 15.4689L41.866 15.7128L42.0996 15.9604L42.3294 16.2115L42.5553 16.4664L42.7771 16.7251L42.9946 16.9875L43.2075 17.2537L43.4157 17.5237L43.6189 17.7975L43.8171 18.075L44.0099 18.3563L44.1973 18.6413L44.3791 18.9298L44.5551 19.2219L44.7252 19.5174L44.8892 19.8163L45.0472 20.1183L45.1989 20.4234L45.3444 20.7314L45.4836 21.0421L45.6165 21.3555L45.7431 21.6712L45.8632 21.9893L45.9771 22.3095L46.0846 22.6316L46.1857 22.9555L46.2806 23.281L46.3692 23.6079L46.4516 23.9362L46.5279 24.2656L46.5981 24.596L46.6624 24.9272L46.7207 25.259L46.7732 25.5914L46.8199 25.9242L46.861 26.2573L46.8966 26.5905L46.9268 26.9237L46.9517 27.2568L46.9713 27.5897L46.9858 27.9222L46.9954 28.2544L47 28.5861L46.9999 28.9171L46.995 29.2475L46.9856 29.5772L46.9716 29.906L46.9532 30.234L46.9305 30.561L46.9034 30.8871L46.8721 31.2121L46.8367 31.536L46.7971 31.8588L46.7534 32.1804L46.7056 32.5008L46.6538 32.82L46.5981 33.1378L46.5385 33.4542L46.475 33.7693L46.4077 34.083L46.3366 34.3952L46.2618 34.7059L46.1832 35.0151L46.101 35.3227L46.015 35.6287L45.9253 35.9331L45.832 36.2357L45.735 36.5367L45.6343 36.8359L45.5299 37.1333L45.4217 37.4288L45.3098 37.7224L45.1941 38.014L45.0746 38.3035L44.9513 38.5909L44.824 38.8761L44.6929 39.1591L44.5577 39.4396L44.4186 39.7178L44.2754 39.9934L44.1282 40.2663L43.9769 40.5365L43.8215 40.804L43.6619 41.0684L43.4983 41.3299L43.3305 41.5882L43.1586 41.8433L42.9827 42.0951L42.8027 42.3435L42.6187 42.5884L42.4308 42.8297L42.239 43.0674L42.0434 43.3013L41.8442 43.5315L41.6413 43.7579L41.435 43.9804L41.2253 44.199L41.0123 44.4136L40.7961 44.6243L40.5769 44.8309L40.3546 45.0334L40.1295 45.2319L39.9017 45.4263L39.6712 45.6166L39.4382 45.8028L39.2027 45.9849L38.965 46.1629L38.725 46.3367L38.483 46.5065L38.239 46.6721L37.9931 46.8337L37.7454 46.9913L37.4961 47.1448L37.2452 47.2943L36.9929 47.4399L36.7392 47.5816L36.4842 47.7193L36.228 47.8532L35.9707 47.9832L35.7124 48.1094L35.4531 48.2318L35.1929 48.3506L34.9319 48.4655L34.6701 48.5768L34.4077 48.6845L34.1445 48.7884L33.8808 48.8888L33.6165 48.9855L33.3516 49.0785L33.0862 49.1678L32.8203 49.2533L32.5539 49.3349L32.287 49.4126L32.0196 49.4862L31.7517 49.5556L31.4833 49.6207L31.2145 49.6813L30.9452 49.7372L30.6754 49.7883L30.4053 49.8344L30.1348 49.8753L29.864 49.9108L29.5929 49.9406L29.3216 49.9647L29.0503 49.9827L28.7789 49.9946L28.5076 50L28.2365 49.9988L27.9658 49.9909L27.6955 49.9761L27.4259 49.9541L27.1571 49.9249L26.8892 49.8884L26.6225 49.8444L26.3571 49.7928L26.0933 49.7336L25.8313 49.6667L25.5712 49.5922L25.3133 49.51L25.0578 49.4202L24.8049 49.3228L24.5549 49.2179L24.308 49.1058L24.0643 48.9864L23.824 48.8601L23.5875 48.7271L23.3548 48.5876L23.1261 48.4419L22.9016 48.2903L22.6813 48.1332L22.4656 47.9708L22.2543 47.8035L22.0477 47.6317L21.8458 47.4556L21.6487 47.2758L21.4564 47.0926L21.2688 46.9063L21.0862 46.7174L20.9083 46.5262L20.7351 46.3331L20.5667 46.1385L20.4029 45.9429L20.2437 45.7465L20.0888 45.5498L19.9383 45.3531L19.7919 45.1568L19.6495 44.9612L19.5109 44.7667L19.3759 44.5736L19.2444 44.3822L19.116 44.1927L18.9906 44.0055L18.868 43.8208L18.7479 43.6389L18.63 43.4599L18.514 43.2841L18.3998 43.1115L18.2871 42.9425L18.1756 42.777L18.065 42.6153L17.955 42.4573L17.8455 42.3032L17.7361 42.1529L17.6266 42.0065L17.5168 41.8639L17.4065 41.7251L17.2954 41.5901L17.1833 41.4586L17.0702 41.3306L16.9557 41.206L16.8398 41.0845L16.7224 40.9661L16.6033 40.8506L16.4823 40.7376L16.3596 40.6271L16.2349 40.5188L16.1082 40.4124L15.9796 40.3077L15.849 40.2046L15.7164 40.1026L15.5818 40.0017L15.4453 39.9014L15.3069 39.8017L15.1667 39.7022L15.0248 39.6027L14.8813 39.503L14.7362 39.4028L14.5897 39.3019L14.4418 39.2002L14.2928 39.0974L14.1426 38.9933L13.9915 38.8877L13.8396 38.7806L13.6869 38.6717L13.5337 38.5608L13.3799 38.448L13.2258 38.333L13.0713 38.2158L12.9167 38.0962L12.7619 37.9743L12.607 37.8499L12.4521 37.7229L12.2973 37.5934L12.1425 37.4613L11.9879 37.3264L11.8335 37.1889L11.6793 37.0486L11.5254 36.9055L11.3718 36.7595L11.2186 36.6106L11.0659 36.4588L10.9136 36.3041L10.7619 36.1463L10.6107 35.9855L10.4603 35.8217L10.3105 35.6547L10.1615 35.4846L10.0133 35.3114L9.86604 35.1349L9.71972 34.9553L9.57445 34.7724L9.4303 34.5862L9.28736 34.3966L9.14571 34.2038L9.00546 34.0076L8.86669 33.8081L8.72952 33.6051L8.59406 33.3988L8.46043 33.189L8.32874 32.9759L8.19913 32.7593L8.07174 32.5393L7.94669 32.3159L7.82413 32.089L7.70422 31.8588Z" fill="url(#paint0_linear_64_32205)" fill-opacity="0.2"/>
<g clip-path="url(#clip0_64_32205)">
<path opacity="0.931" fill-rule="evenodd" clip-rule="evenodd" d="M46.9541 21.4345C46.9541 22.8114 46.9541 24.1884 46.9541 25.5653C46.3061 31.4667 43.797 36.4084 39.4268 40.3905C40.0023 42.0603 39.5128 43.3148 37.958 44.1542C36.7984 44.5679 35.758 44.3691 34.8369 43.5575C29.4766 46.2132 23.9076 46.7487 18.1299 45.164C16.7589 44.7631 15.4431 44.2277 14.1826 43.5575C13.2926 44.2029 12.3134 44.3711 11.2451 44.0624C9.7078 43.2781 9.14176 42.0388 9.54688 40.3446C5.27697 36.4564 2.79846 31.6217 2.11133 25.8407C2.02679 24.9858 1.98089 24.129 1.97363 23.2704C0.940184 23.0019 0.267007 22.3593 -0.0458984 21.3427C-0.0458984 20.8531 -0.0458984 20.3635 -0.0458984 19.8739C0.396846 18.5769 1.31482 17.8426 2.70801 17.6708C3.30312 15.3336 4.28228 13.1764 5.64551 11.1991C6.26996 11.0364 6.63714 11.2659 6.74707 11.8876C6.15991 13.0315 5.59383 14.1943 5.04883 15.3759C4.72152 16.2354 4.43083 17.1075 4.17676 17.9921C4.59084 18.3455 4.94272 18.7586 5.23242 19.2314C8.0587 18.6381 10.9197 18.3015 13.8154 18.2216C14.5715 16.9845 15.673 16.4796 17.1201 16.707C18.4987 14.8382 20.0746 13.14 21.8477 11.6122C21.7655 10.8955 21.689 10.1764 21.6182 9.455C19.5149 8.1977 17.2811 7.23384 14.917 6.5634C14.8305 6.57333 14.7541 6.60393 14.6875 6.65519C13.984 7.71707 12.9895 8.16076 11.7041 7.98625C11.3448 7.89819 11.0082 7.76049 10.6943 7.57316C9.91572 8.18346 9.21191 8.87194 8.58301 9.63859C7.80408 9.86946 7.42159 9.57874 7.43555 8.76652C8.07466 7.91314 8.80904 7.14817 9.63867 6.4716C9.02917 4.15853 9.90121 2.78158 12.2549 2.34074C13.082 2.37201 13.7858 2.67799 14.3662 3.25871C19.6781 0.674368 25.1859 0.169485 30.8896 1.74406C32.1158 2.10488 33.2938 2.57916 34.4238 3.16691C35.6571 2.12733 36.927 2.08143 38.2334 3.02922C39.1551 3.90109 39.4305 4.94145 39.0596 6.15031C39.5382 6.6565 40.0431 7.13077 40.5742 7.57316C42.3875 6.98035 43.6726 7.56172 44.4297 9.3173C44.7141 10.291 44.5458 11.1784 43.9248 11.9794C45.6195 14.9211 46.6292 18.0729 46.9541 21.4345ZM22.8115 2.34074C26.5686 2.09476 30.1487 2.76794 33.5518 4.36027C33.6717 4.65059 33.6412 4.92598 33.46 5.18644C31.0726 5.90598 28.8082 6.90045 26.667 8.16984C26.5752 8.23104 26.4834 8.23104 26.3916 8.16984C25.0873 7.17953 23.7715 7.19483 22.4443 8.21574C20.141 6.83594 17.693 5.79558 15.1006 5.09465C15.062 4.89508 15.062 4.71149 15.1006 4.54387C17.5482 3.33993 20.1185 2.60556 22.8115 2.34074ZM12.1631 3.80949C13.5453 4.09527 13.9125 4.86024 13.2646 6.10441C12.4882 6.75904 11.7691 6.69784 11.1074 5.92082C10.7266 4.84639 11.0786 4.14261 12.1631 3.80949ZM36.2139 3.80949C37.4631 3.94132 37.9374 4.61449 37.6367 5.82902C36.8854 6.7707 36.0899 6.8013 35.25 5.92082C34.8744 4.89749 35.1957 4.19372 36.2139 3.80949ZM33.6436 6.65519C34.0675 6.84683 34.4347 7.13752 34.7451 7.52726C35.9303 8.23528 37.0778 8.18939 38.1875 7.38957C38.573 7.8058 38.986 8.18829 39.4268 8.53703C38.7252 9.65346 38.7406 10.7704 39.4727 11.8876C39.736 12.1817 40.0266 12.4418 40.3447 12.6679C39.3138 15.9295 37.9369 19.0354 36.2139 21.9853C35.7962 22.1046 35.3831 22.1046 34.9746 21.9853C33.0274 17.9568 30.3806 14.4532 27.0342 11.4745C27.1283 11.2844 27.2047 11.0855 27.2637 10.8778C27.2972 10.4031 27.3124 9.94409 27.3096 9.5009C29.3267 8.32368 31.438 7.37512 33.6436 6.65519ZM41.4463 8.76652C42.8256 8.87425 43.2999 9.57801 42.8691 10.8778C42.1042 11.7346 41.3392 11.7346 40.5742 10.8778C40.1936 9.8925 40.4843 9.18879 41.4463 8.76652ZM24.2803 8.85832C25.5315 8.99175 26.0058 9.66494 25.7031 10.8778C25.1982 11.6273 24.5403 11.7956 23.7295 11.3827C23.0736 10.7296 23.0124 10.0258 23.5459 9.2714C23.7845 9.10663 24.0293 8.96893 24.2803 8.85832ZM22.9033 12.622C23.9565 13.2318 25.0122 13.2318 26.0703 12.622C29.2499 15.4483 31.7743 18.7683 33.6436 22.582C33.5364 22.6891 33.4294 22.7961 33.3223 22.9032C28.8223 20.6191 24.0642 19.1656 19.0479 18.5429C18.8795 18.1752 18.6653 17.8386 18.4053 17.5331C19.7257 15.7381 21.2251 14.1011 22.9033 12.622ZM42.6396 12.8056C45.3995 17.6658 46.1798 22.8371 44.9805 28.3193C44.7924 29.1329 44.5476 29.9285 44.2461 30.706C42.3784 28.856 40.3589 27.2036 38.1875 25.7489C38.3796 24.6578 38.1195 23.6939 37.4072 22.8573C39.309 19.7726 40.7472 16.4832 41.7217 12.9892C42.0542 13.0055 42.3602 12.9443 42.6396 12.8056ZM16.0186 18.1298C17.4863 18.2192 17.9606 18.9536 17.4414 20.3329C16.7633 21.0197 16.0595 21.0502 15.3301 20.4247C14.7561 19.4085 14.9856 18.6436 16.0186 18.1298ZM2.34082 19.2314C3.79177 19.2571 4.29665 19.9609 3.85547 21.3427C3.15132 22.1463 2.41695 22.1769 1.65234 21.4345C1.14385 20.4698 1.37335 19.7354 2.34082 19.2314ZM12.1631 19.7821C12.6221 19.7821 13.0811 19.7821 13.54 19.7821C13.598 20.4305 13.8428 20.9966 14.2744 21.4804C11.6138 26.9505 10.5581 32.7184 11.1074 38.7841C10.9009 38.895 10.702 39.0174 10.5107 39.1513C9.83934 38.6481 9.24266 38.0668 8.7207 37.4071C5.45541 33.3038 3.71127 28.6222 3.48828 23.3622C4.7866 22.905 5.47508 21.987 5.55371 20.6083C7.76621 20.3048 9.96932 20.0294 12.1631 19.7821ZM19.1396 20.0575C23.8609 20.6675 28.3438 22.0445 32.5879 24.1884C32.474 25.0263 32.6423 25.8066 33.0928 26.5292C28.195 32.6354 22.0752 37.0569 14.7334 39.7939C14.1803 39.1347 13.4765 38.7369 12.6221 38.6005C12.0606 32.9115 13.0245 27.4955 15.5137 22.3525C16.8229 22.5179 17.8938 22.0895 18.7266 21.0673C18.9162 20.7496 19.0539 20.4131 19.1396 20.0575ZM34.9287 23.5458C36.2843 23.4474 36.8503 24.0594 36.627 25.3818C36.2799 26.0982 35.7138 26.3583 34.9287 26.162C33.7108 25.2903 33.7108 24.4183 34.9287 23.5458ZM37.2236 27.0341C37.5187 27.1204 37.7941 27.2581 38.0498 27.4472C40.0358 28.886 41.9023 30.4771 43.6494 32.2206C42.4586 34.8781 40.7757 37.173 38.6006 39.1054C38.362 39.0871 38.1325 39.0106 37.9121 38.8759C37.9176 37.7591 37.9635 36.6422 38.0498 35.5253C38.069 34.3781 37.5947 34.0875 36.627 34.6532C36.5534 36.0011 36.4616 37.3475 36.3516 38.6923C34.5892 39.2639 33.8089 40.4726 34.0107 42.3183C28.5833 44.9376 23.0143 45.2742 17.3037 43.328C16.558 43.0336 15.8236 42.7123 15.1006 42.3642C15.031 41.9774 15.0617 41.5949 15.1924 41.2167C22.8283 38.3986 29.1929 33.824 34.2861 27.4931C34.6964 27.611 35.1095 27.7028 35.5254 27.7685C35.829 28.9497 36.0738 30.1431 36.2598 31.3486C36.5737 31.739 36.9562 31.8155 37.4072 31.578C37.5857 31.42 37.6775 31.221 37.6826 30.9814C37.5084 29.7735 37.2636 28.5801 36.9482 27.4013C36.9746 27.2229 37.0664 27.1005 37.2236 27.0341ZM11.8877 40.0693C12.7184 39.9675 13.2844 40.3042 13.5859 41.079C13.6314 42.3184 13.0347 42.8538 11.7959 42.6855C10.8334 42.0949 10.6804 41.3453 11.3369 40.4364C11.5012 40.2697 11.6848 40.1474 11.8877 40.0693ZM36.5811 40.1611C37.5213 40.1528 38.0721 40.6118 38.2334 41.538C38.1106 42.3341 37.6516 42.7931 36.8564 42.915C35.5395 42.5739 35.203 41.8089 35.8467 40.62C36.0696 40.4176 36.3144 40.2646 36.5811 40.1611Z" fill="#121212"/>
</g>
<defs>
<linearGradient id="paint0_linear_64_32205" x1="182.252" y1="-107.073" x2="150.529" y2="-134.389" gradientUnits="userSpaceOnUse">
<stop stop-color="#9AB0A6"/>
<stop offset="1" stop-color="#426986"/>
</linearGradient>
<clipPath id="clip0_64_32205">
<rect width="47" height="47" fill="white"/>
</clipPath>
</defs>
</svg>

<svg xmlns="http://www.w3.org/2000/svg" width="47" height="50" fill="none" viewBox="0 0 47 50"><path fill="url(#a)" fill-opacity=".2" fill-rule="evenodd" d="m7.704 31.859-.117-.234-.114-.237-.111-.24-.108-.243-.104-.247-.101-.25-.098-.253-.093-.256-.09-.259-.084-.261-.081-.265-.076-.267-.072-.27-.067-.272-.062-.275-.057-.277-.052-.28-.047-.28-.04-.284-.037-.285-.03-.287-.024-.288-.019-.29-.012-.29L6 25.177v-.293l.005-.294.012-.294.017-.295.024-.295.03-.295.036-.296.042-.295.048-.295.055-.295.06-.294.068-.294.073-.293.08-.292.085-.29.091-.29.098-.29.104-.286.11-.286.115-.284.12-.282.128-.28.132-.28.138-.276.143-.275.149-.273.154-.27.159-.269.164-.266.168-.264.174-.262.178-.26.183-.257.187-.255.192-.253.196-.25.2-.25.204-.245.208-.244.212-.242.216-.24.22-.237.223-.235.228-.232.23-.23.236-.228.238-.226.242-.223.246-.22.25-.219.252-.215.257-.213.26-.21.264-.207.267-.204.271-.2.275-.198.278-.194.283-.19.285-.186.29-.182.293-.178.296-.173.3-.169.304-.163.307-.159.311-.153.314-.147.317-.141.32-.135.325-.13.326-.121.33-.116.332-.108.334-.101.338-.094.34-.086.34-.078.344-.07.345-.063.347-.054.348-.046.349-.037.35-.03.35-.02.351-.013.352-.004.35.004.352.012.35.02.35.03.35.036.349.044.347.051.346.059.344.066.343.073.342.08.34.086.337.093.335.099.334.104.33.11.33.117.327.12.324.127.322.13.32.136.317.14.315.143.313.147.31.151.308.155.306.158.304.162.301.164.3.167.296.17.295.173.293.175.291.178.29.18.286.183.285.185.284.187.281.19.28.192.278.195.276.197.273.2.273.2.27.205.268.207.266.21.265.212.262.215.26.218.257.22.255.225.252.227.25.23.246.234.244.236.24.24.238.245.234.247.23.252.225.254.222.26.218.262.213.266.208.27.203.273.198.278.193.281.187.285.182.289.176.292.17.295.164.3.158.301.152.305.145.308.14.311.133.313.126.316.12.318.114.32.108.323.1.323.096.326.088.327.083.328.076.33.07.33.064.331.059.332.052.332.047.333.041.333.036.333.03.334.025.333.02.333.014.332.01.332.004.332v.331l-.005.33-.01.33-.013.329-.019.328-.023.327-.027.326-.03.325-.036.324-.04.323-.044.321-.047.32-.052.32-.056.318-.06.316-.063.315-.067.314-.071.312-.075.31-.079.31-.082.308-.086.306-.09.304-.093.303-.097.3-.1.3-.105.297-.108.296-.112.293-.116.292-.12.29-.123.287-.127.285-.131.283-.135.28-.14.279-.143.275-.147.273-.151.27-.155.268-.16.264-.164.262-.167.258-.172.255-.176.252-.18.248-.184.245-.188.242-.192.237-.196.234-.199.23-.203.227-.206.222-.21.219-.213.215-.216.21-.22.207-.221.202-.225.199-.228.194-.23.19-.234.187-.235.182-.238.178-.24.174-.242.17-.244.165-.246.162-.248.157-.249.154-.25.15-.253.145-.254.142-.255.137-.256.134-.257.13-.259.126-.259.123-.26.119-.261.114-.262.112-.262.108-.264.103-.263.1-.264.098-.265.093-.266.089-.266.085-.266.082-.267.078-.267.073-.268.07-.269.065-.268.06-.27.056-.27.051-.27.046-.27.041-.271.036-.271.03-.271.024-.272.018-.271.012-.271.005-.271-.001-.271-.008-.27-.015-.27-.022-.269-.03-.268-.036-.267-.044-.265-.051-.264-.06-.262-.066-.26-.075-.258-.082-.255-.09-.253-.097-.25-.105-.247-.112-.244-.12-.24-.126-.237-.133-.232-.14-.229-.145-.224-.152-.22-.157-.216-.162-.212-.167-.206-.172-.202-.176-.197-.18-.193-.183-.187-.187-.183-.189-.178-.19-.173-.194-.168-.194-.164-.196-.16-.197-.154-.196-.15-.197-.147-.196-.143-.196-.138-.194-.135-.193-.132-.192-.128-.19-.125-.187-.123-.184-.12-.182-.118-.18-.116-.175-.114-.172-.113-.17-.111-.165-.111-.162-.11-.158-.11-.154-.109-.15-.11-.146-.11-.143-.11-.139-.11-.135-.113-.131-.113-.128-.114-.125-.116-.122-.118-.118-.119-.115-.12-.113-.123-.11-.125-.11-.127-.106-.128-.104-.131-.103-.133-.102-.134-.101-.137-.1-.138-.1-.14-.1-.142-.1-.144-.099-.145-.1-.146-.101-.148-.102-.15-.103-.15-.104-.15-.105-.152-.107-.153-.11-.153-.11-.154-.113-.154-.115-.155-.117-.154-.12-.155-.122-.155-.124-.155-.127-.155-.13-.155-.132-.154-.135-.154-.137-.155-.14-.154-.143-.153-.146-.153-.15-.153-.151-.152-.155-.152-.158-.151-.16-.15-.164-.15-.167-.15-.17-.148-.174-.147-.176-.146-.18-.146-.183-.144-.186-.143-.19-.141-.192-.14-.196-.14-.2-.136-.203-.136-.206-.134-.21-.131-.213-.13-.217-.127-.22-.125-.223-.123-.227z" clip-rule="evenodd"/><g clip-path="url(#b)"><path fill="#121212" fill-rule="evenodd" d="M46.954 21.435v4.13q-.972 8.852-7.527 14.826.863 2.505-1.469 3.763-1.74.621-3.121-.597-8.04 3.984-16.707 1.607a21 21 0 0 1-3.947-1.607q-1.336.969-2.938.505-2.305-1.176-1.698-3.717Q3.142 34.512 2.11 25.84a29 29 0 0 1-.137-2.57q-1.55-.404-2.02-1.928v-1.47q.664-1.944 2.754-2.202a20 20 0 0 1 2.938-6.472q.936-.244 1.101.689a92 92 0 0 0-1.698 3.488q-.49 1.29-.872 2.616.621.53 1.055 1.24a48 48 0 0 1 8.583-1.01q1.135-1.856 3.305-1.515a31 31 0 0 1 4.728-5.095q-.123-1.075-.23-2.157a27.8 27.8 0 0 0-6.701-2.892.45.45 0 0 0-.23.092q-1.054 1.593-2.983 1.331a3.7 3.7 0 0 1-1.01-.413 13.5 13.5 0 0 0-2.11 2.068q-1.168.346-1.147-.872a13 13 0 0 1 2.203-2.295q-.915-3.47 2.616-4.131 1.24.046 2.111.918Q22.334-.618 30.89 1.744a19.7 19.7 0 0 1 3.534 1.423q1.85-1.56 3.81-.138 1.382 1.308.826 3.121.717.759 1.514 1.423 2.72-.889 3.856 1.744.426 1.46-.505 2.662a23.2 23.2 0 0 1 3.03 9.456M22.811 2.34a21.6 21.6 0 0 1 10.74 2.02q.18.435-.091.825a30.6 30.6 0 0 0-6.793 2.984.23.23 0 0 1-.275 0q-1.957-1.485-3.948.046a29 29 0 0 0-7.343-3.121 1.3 1.3 0 0 1 0-.551 22.3 22.3 0 0 1 7.71-2.203M12.164 3.809q2.073.429 1.102 2.295-1.165.983-2.158-.183-.57-1.612 1.056-2.112m24.05 0q1.875.198 1.424 2.02-1.127 1.412-2.387.092-.563-1.535.964-2.112m-2.57 2.846q.637.288 1.102.872 1.778 1.062 3.443-.137.578.624 1.239 1.147-1.053 1.674.046 3.35.395.443.872.78a45.8 45.8 0 0 1-4.131 9.318q-.626.18-1.24 0a33.4 33.4 0 0 0-7.94-10.51q.14-.286.23-.597.05-.712.046-1.377a32.6 32.6 0 0 1 6.334-2.846m7.803 2.112q2.07.161 1.423 2.11-1.148 1.287-2.295 0-.57-1.477.872-2.11m-17.166.091q1.878.2 1.423 2.02-.758 1.125-1.973.505-.984-.98-.184-2.112a4.5 4.5 0 0 1 .734-.413m-1.377 3.764q1.58.915 3.167 0a32.1 32.1 0 0 1 7.574 9.96l-.322.321a43 43 0 0 0-14.274-4.36 4.3 4.3 0 0 0-.643-1.01 31 31 0 0 1 4.498-4.911m19.737.184q4.14 7.29 2.34 15.513-.282 1.221-.734 2.387a41 41 0 0 0-6.059-4.957q.29-1.636-.78-2.892a38.3 38.3 0 0 0 4.315-9.868q.498.024.918-.183M16.019 18.13q2.201.135 1.422 2.203-1.017 1.03-2.11.092-.862-1.525.688-2.295M2.34 19.23q2.176.039 1.514 2.112-1.056 1.205-2.203.091-.763-1.447.689-2.203m9.822.551h1.377q.087.973.734 1.698-3.99 8.205-3.167 17.304-.31.166-.596.367a9.7 9.7 0 0 1-1.79-1.744q-4.899-6.155-5.233-14.045 1.948-.686 2.066-2.754 3.318-.455 6.61-.826m6.977.276a41.4 41.4 0 0 1 13.448 4.13 3.43 3.43 0 0 0 .505 2.341q-7.347 9.16-18.36 13.265a3.36 3.36 0 0 0-2.11-1.194q-.842-8.533 2.89-16.248 1.964.25 3.214-1.285a3.6 3.6 0 0 0 .413-1.01m15.789 3.488q2.032-.148 1.698 1.836-.52 1.074-1.698.78-1.827-1.308 0-2.616m2.295 3.488q.442.13.826.413a47 47 0 0 1 5.6 4.774 20.1 20.1 0 0 1-5.05 6.884 1.5 1.5 0 0 1-.688-.23q.009-1.674.138-3.35.029-1.72-1.423-.872a150 150 0 0 1-.275 4.04q-2.644.856-2.341 3.625-8.142 3.93-16.707 1.01a33 33 0 0 1-2.203-.964q-.105-.581.091-1.147 11.453-4.227 19.094-13.724.615.177 1.24.276.455 1.77.734 3.58.47.585 1.147.229a.8.8 0 0 0 .276-.597 31 31 0 0 0-.735-3.58.44.44 0 0 1 .276-.367M11.888 40.07q1.245-.153 1.698 1.01.068 1.86-1.79 1.606-1.444-.885-.46-2.249.247-.25.552-.367m24.693.092q1.41-.013 1.652 1.377-.183 1.194-1.377 1.377-1.975-.512-1.01-2.295.335-.303.735-.459" clip-rule="evenodd" opacity=".931"/></g><defs><linearGradient id="a" x1="182.252" x2="150.529" y1="-107.073" y2="-134.389" gradientUnits="userSpaceOnUse"><stop stop-color="#9ab0a6"/><stop offset="1" stop-color="#426986"/></linearGradient><clipPath id="b"><path fill="#fff" d="M0 0h47v47H0z"/></clipPath></defs></svg>
